source/img/logotypes/logo-bitcon-grey.svg

<svg width="96" height="64" viewBox="0 0 96 64" fill="none" xmlns="http://www.w3.org/2000/svg">
<rect opacity="0.05" width="96" height="64" rx="8" fill="#E0E0E0"/>
<g clip-path="url(#clip0)">
<path d="M67.4018 36.8368C64.7296 47.5568 53.8685 54.0733 43.1638 51.401C32.4435 48.7288 25.927 37.8682 28.5993 27.1637C31.2715 16.4437 42.1168 9.9271 52.8371 12.5994C63.5418 15.256 70.0742 26.1166 67.4018 36.8368Z" fill="#E0E0E0"/>
<path d="M57.5231 29.5081C57.9138 26.8518 55.8981 25.4143 53.1169 24.4612L54.0231 20.8518L51.8356 20.3049L50.9606 23.8206C50.3825 23.6799 49.7888 23.5393 49.195 23.4143L50.07 19.8831L47.8825 19.3362L46.9919 22.9299C46.5075 22.8206 46.0388 22.7112 45.5856 22.6018V22.5862L42.5544 21.8362L41.9763 24.1799C41.9763 24.1799 43.6013 24.5549 43.57 24.5706C44.4606 24.7893 44.6169 25.3831 44.5856 25.8518L43.5544 29.9612C43.6169 29.9768 43.695 29.9924 43.7888 30.0393C43.7106 30.0237 43.6325 30.0081 43.5544 29.9768L42.1169 35.7268C42.0075 35.9924 41.7263 36.3987 41.1169 36.2424C41.1325 36.2737 39.5231 35.8518 39.5231 35.8518L38.4294 38.3674L41.2888 39.0862C41.82 39.2268 42.3356 39.3518 42.8513 39.4924L41.945 43.1331L44.1325 43.6799L45.0388 40.0706C45.6325 40.2268 46.2263 40.3831 46.7888 40.5237L45.8981 44.1174L48.0856 44.6643L48.9919 41.0237C52.7419 41.7268 55.5544 41.4456 56.7263 38.0549C57.6794 35.3362 56.6794 33.7581 54.7106 32.7268C56.1638 32.3987 57.2419 31.4456 57.5231 29.5081ZM52.5075 36.5393C51.8356 39.2581 47.2419 37.7893 45.7575 37.4143L46.9606 32.5862C48.445 32.9612 53.2263 33.6956 52.5075 36.5393ZM53.195 29.4612C52.57 31.9456 48.7575 30.6799 47.5231 30.3674L48.6169 25.9924C49.8513 26.3049 53.8356 26.8831 53.195 29.4612Z" fill="#0D0D2B"/>
</g>
<defs>
<clipPath id="clip0">
<rect width="40" height="40" fill="white" transform="translate(28 12)"/>
</clipPath>
</defs>
</svg>

<svg width="96" height="64" fill="none" xmlns="http://www.w3.org/2000/svg"><rect opacity=".05" width="96" height="64" rx="8" fill="#E0E0E0"/><g clip-path="url(#clip0)"><path d="M67.402 36.837C64.73 47.557 53.868 54.073 43.164 51.4c-10.72-2.672-17.237-13.533-14.565-24.237 2.672-10.72 13.518-17.237 24.238-14.565 10.705 2.657 17.237 13.518 14.565 24.238z" fill="#E0E0E0"/><path d="M57.523 29.508c.39-2.656-1.625-4.094-4.406-5.047l.906-3.61-2.187-.546-.875 3.516a58.136 58.136 0 00-1.766-.407l.875-3.53-2.188-.548-.89 3.594c-.484-.11-.953-.219-1.406-.328v-.016l-3.032-.75-.578 2.344s1.625.375 1.594.39c.89.22 1.047.813 1.016 1.282l-1.032 4.11c.063.015.141.03.235.077a1.294 1.294 0 01-.235-.062l-1.437 5.75c-.11.265-.39.672-1 .515.016.032-1.594-.39-1.594-.39l-1.094 2.515 2.86.72c.531.14 1.047.265 1.562.405l-.906 3.641 2.188.547.906-3.61c.593.157 1.187.313 1.75.454l-.89 3.593 2.187.547.906-3.64c3.75.703 6.562.422 7.734-2.97.953-2.718-.047-4.296-2.015-5.327 1.453-.328 2.53-1.281 2.812-3.219zm-5.016 7.031c-.671 2.72-5.265 1.25-6.75.875l1.204-4.828c1.484.375 6.265 1.11 5.547 3.953zm.688-7.078c-.625 2.485-4.438 1.219-5.672.906l1.094-4.375c1.234.313 5.219.891 4.578 3.47z" fill="#0D0D2B"/></g><defs><clipPath id="clip0"><path fill="#fff" transform="translate(28 12)" d="M0 0h40v40H0z"/></clipPath></defs></svg>
